X:20
T:An dro
C:trad
A:Bretagne
O:France
M:2/2
L:1/4
Q:1/4=180
R:An-dro
K:Gm
Gdd d/2e/2|cc/2d/2B2|A/2B/2c/2A/2 BG|G/2F/2G/2A/2 BA|
Gddd/2e/2|cc/2d/2B2|A/2B/2c/2A/2 BG|B/2G/2A/2F/2 G2:|
|:A/2B/2c/2A/2 BG|G/2F/2G/2A/2 BA|A/2B/2c/2A/2 BG|B/2G/2A/2F/2 G2:|
